mini-sd.svg

<svg fill="currentColor" viewBox="0 0 24 24"><path d="M6 4a2 2 0 0 0-2 2v12a2 2 0 0 0 2 2h12a2 2 0 0 0 2-2v-6l-2-2V6a2 2 0 0 0-2-2zm1 2h2v4H7zm3 0h2v4h-2zm3 0h2v4h-2z"/></svg>

<svg  viewBox="0 0 24 24" fill="currentColor"><path  d="M6,4A2,2 0 0,0 4,6V18A2,2 0 0,0 6,20H18A2,2 0 0,0 20,18V12L18,10V6A2,2 0 0,0 16,4H6M7,6H9V10H7V6M10,6H12V10H10V6M13,6H15V10H13V6Z"/></svg>
